X:12
T:Talijanska
R:misc
H:Originally in key of G minor.
H:From the film "Time of the Gypsies".
Z:id:hn-misc-12
M:3/4
L:1/8
Q:1/4=200
K:Am
"E7"e2ee ee | ef ed cB | "Am"c2cc cc | cB Ac BA |
"E7"^GA Bc de | fe ^de ^f^g | "Am"a6- | a6 ||
"Am"(3cdc A2AB | (3cdc A2AB | (3cdc A2Ac | e6 |
"Dm"(3fgf d2de | (3fgf d2de | (3fgf d2df | a6 |
"E7"^ga ba ^gf | ef ed cB | "Am"AB cB cd | e6 |
"Dm"fe fd ef | "Am"e^d ec =de | "E7"^de f^f g^g | "Am"a6 ||
K:F
"F"A2 AB c2 | A2 c2 A2 | "C7"B2 Bc BA | G6 |
"C7"B2 Bc d2 | B2 d2 B2 | "F"c2 cd cB | A6 |
"Dm"f2 fe df | "Am"ec A4 | "Bb"d2 dc Bd | "F"cA F4 |
"Gm"GA BA GA | BA GA Bc | "C"dc =Bc de | "F"f6 ||

